; generated by Slic3r 1.3.0 on 2021-11-25 at 16:10:34

; external perimeters extrusion width = 0.55mm (2.91mm^3/s)
; perimeters extrusion width = 0.70mm (7.63mm^3/s)
; infill extrusion width = 0.63mm (13.45mm^3/s)
; solid infill extrusion width = 0.70mm (3.81mm^3/s)
; top infill extrusion width = 0.70mm (2.86mm^3/s)

M107
M190 S55 ; set bed temperature and wait for it to be reached
M104 S240 ; set temperature
G28 ; home all axes
G1 Z5 F5000 ; lift nozzle

; Filament gcode

M109 S240 ; set temperature and wait for it to be reached
G21 ; set units to millimeters
G90 ; use absolute coordinates
M82 ; use absolute distances for extrusion
G92 E0
G1 Z0.350 F7800.000
G1 E-6.00000 F2400.00000
G92 E0
G1 X88.472 Y88.059 F7800.000
G1 E6.00000 F2400.00000
G1 F1800
G1 X88.916 Y87.626 E6.05639
G1 X89.531 Y87.111 E6.12927
G1 X90.669 Y86.270 E6.25800
G1 X91.113 Y85.964 E6.30697
G1 X91.874 Y85.517 E6.38726
G1 X93.138 Y84.879 E6.51599
G1 X93.835 Y84.568 E6.58540
G1 X94.454 Y84.344 E6.64527
G1 X95.807 Y83.929 E6.77400
G1 X96.613 Y83.728 E6.84948
G1 X97.196 Y83.626 E6.90327
G1 X98.600 Y83.446 E7.03200
G1 X99.317 Y83.391 E7.09738
G1 X100.019 Y83.385 E7.16128
G1 X101.434 Y83.445 E7.29001
G1 X102.080 Y83.504 E7.34900
G1 X102.843 Y83.628 E7.41929
G1 X104.227 Y83.926 E7.54802
G1 X104.805 Y84.079 E7.60242
G1 X105.202 Y84.207 E7.64038
G1 X106.897 Y84.875 E7.80603
G1 X107.503 Y85.155 E7.86668
G1 X108.162 Y85.522 E7.93531
G1 X109.368 Y86.264 E8.06404
G1 X109.976 Y86.687 E8.13142
G1 X110.504 Y87.117 E8.19331
G1 X111.566 Y88.053 E8.32204
G1 X112.148 Y88.633 E8.39675
G1 X112.539 Y89.088 E8.45131
G1 X113.429 Y90.189 E8.58004
G1 X113.962 Y90.953 E8.66473
G1 X114.901 Y92.611 E8.83800
G1 X115.320 Y93.514 E8.92853
G1 X115.424 Y93.793 E8.95555
G1 X115.940 Y95.248 E9.09597
G1 X116.212 Y96.272 E9.19232
G1 X116.515 Y98.023 E9.35391
G1 X116.611 Y99.127 E9.45463
G1 X116.611 Y100.848 E9.61111
G1 X116.516 Y101.967 E9.71328
G1 X116.229 Y103.640 E9.86758
G1 X115.946 Y104.727 E9.96975
G1 X115.381 Y106.327 E10.12405
G1 X114.918 Y107.351 E10.22622
G1 X114.090 Y108.833 E10.38052
G1 X113.461 Y109.764 E10.48269
G1 X112.395 Y111.084 E10.63698
G1 X111.618 Y111.895 E10.73916
G1 X110.344 Y113.016 E10.89345
G1 X109.440 Y113.684 E10.99563
G1 X107.996 Y114.574 E11.14992
G1 X106.992 Y115.080 E11.25209
G1 X106.731 Y115.185 E11.27766
G1 X105.418 Y115.712 E11.40639
G1 X104.343 Y116.041 E11.50856
G1 X102.685 Y116.399 E11.66286
G1 X101.570 Y116.542 E11.76503
G1 X99.875 Y116.614 E11.91932
G1 X98.752 Y116.566 E12.02150
G1 X97.069 Y116.350 E12.17579
G1 X95.970 Y116.114 E12.27797
G1 X94.348 Y115.617 E12.43226
G1 X93.305 Y115.198 E12.53443
G1 X91.790 Y114.434 E12.68873
G1 X90.833 Y113.845 E12.79090
G1 X89.469 Y112.836 E12.94520
G1 X88.626 Y112.093 E13.04737
G1 X87.451 Y110.868 E13.20166
G1 X86.746 Y109.994 E13.30384
G1 X85.795 Y108.588 E13.45813
G1 X85.247 Y107.607 E13.56030
G1 X85.132 Y107.351 E13.58587
G1 X84.548 Y106.061 E13.71460
G1 X84.182 Y105.033 E13.81386
G1 X83.749 Y103.375 E13.96962
G1 X83.562 Y102.300 E14.06888
G1 X83.413 Y100.561 E14.22756
G1 X83.413 Y99.438 E14.32973
G1 X83.562 Y97.699 E14.48841
G1 X83.749 Y96.624 E14.58766
G1 X84.106 Y95.254 E14.71639
G1 X84.210 Y94.874 E14.75218
G1 X84.559 Y93.908 E14.84562
G1 X85.339 Y92.204 E15.01597
G1 X85.819 Y91.369 E15.10358
G1 X86.928 Y89.755 E15.28166
G1 X87.493 Y89.081 E15.36155
G1 X88.421 Y88.113 E15.48347
G1 E9.48347 F2400.00000
G92 E0
G1 X106.082 Y105.811 F7800.000
G1 E6.00000 F2400.00000
G1 F1800
G1 X105.012 Y106.752 E6.12953
G1 X103.799 Y107.499 E6.25906
G1 X102.477 Y108.030 E6.38860
G1 X101.085 Y108.330 E6.51813
G1 X99.662 Y108.391 E6.64766
G1 X98.249 Y108.210 E6.77719
G1 X96.887 Y107.793 E6.90672
G1 X95.615 Y107.151 E7.03626
G1 X94.469 Y106.304 E7.16579
G1 X93.484 Y105.276 E7.29532
G1 X92.686 Y104.096 E7.42485
G1 X92.099 Y102.797 E7.55444
G1 X91.743 Y101.433 E7.68258
G1 X91.619 Y99.999 E7.81345
G1 X91.743 Y98.567 E7.94419
G1 X92.109 Y97.173 E8.07524
G1 X92.697 Y95.882 E8.20422
G1 X93.518 Y94.682 E8.33642
G1 X94.526 Y93.647 E8.46782
G1 X95.660 Y92.819 E8.59548
G1 X96.796 Y92.246 E8.71114
G1 X96.944 Y92.183 E8.72580
G1 X98.313 Y91.775 E8.85568
G1 X99.634 Y91.614 E8.97666
G1 X101.018 Y91.661 E9.10262
G1 X102.414 Y91.949 E9.23227
G1 X102.568 Y91.999 E9.24693
G1 X103.748 Y92.473 E9.36259
G1 X104.946 Y93.200 E9.48996
G1 X106.058 Y94.163 E9.62376
G1 X106.947 Y95.253 E9.75169
G1 X107.657 Y96.510 E9.88292
G1 X108.140 Y97.864 E10.01365
G1 X108.386 Y99.281 E10.14443
G1 X108.387 Y100.712 E10.27456
G1 X108.146 Y102.116 E10.40407
G1 X107.671 Y103.459 E10.53360
G1 X106.977 Y104.703 E10.66313
G1 X106.129 Y105.753 E10.78584
G1 X106.494 Y106.280 F7800.000
G1 F1800
G1 X105.385 Y107.256 E10.92021
G1 X104.082 Y108.059 E11.05941
G1 X102.661 Y108.630 E11.19862
G1 X101.165 Y108.952 E11.33782
G1 X99.635 Y109.017 E11.47703
G1 X98.116 Y108.823 E11.61623
G1 X96.653 Y108.375 E11.75544
G1 X95.286 Y107.685 E11.89464
G1 X94.055 Y106.775 E12.03384
G1 X92.996 Y105.670 E12.17305
G1 X92.138 Y104.401 E12.31225
G1 X91.508 Y103.006 E12.45149
G1 X91.125 Y101.540 E12.58928
G1 X90.992 Y99.999 E12.72986
G1 X91.125 Y98.460 E12.87038
G1 X91.518 Y96.963 E13.01107
G1 X92.155 Y95.568 E13.15051
G1 X93.033 Y94.285 E13.29190
G1 X94.114 Y93.175 E13.43281
G1 X95.346 Y92.277 E13.57143
G1 X96.532 Y91.679 E13.69219
G1 X96.729 Y91.595 E13.71168
G1 X97.999 Y91.206 E13.83245
G1 X98.205 Y91.159 E13.85169
G1 X99.606 Y90.988 E13.98001
G1 X101.071 Y91.037 E14.11326
G1 X101.279 Y91.065 E14.13236
G1 X102.577 Y91.345 E14.25313
G1 X102.781 Y91.411 E14.27262
G1 X104.013 Y91.907 E14.39339
G1 X105.316 Y92.694 E14.53183
G1 X106.500 Y93.719 E14.67419
G1 X107.465 Y94.901 E14.81298
G1 X108.227 Y96.249 E14.95378
G1 X108.747 Y97.704 E15.09429
G1 X109.011 Y99.227 E15.23482
G1 X109.011 Y100.765 E15.37467
G1 X108.753 Y102.274 E15.51386
G1 X108.243 Y103.717 E15.65307
G1 X107.496 Y105.054 E15.79227
G1 X106.548 Y106.228 E15.92949
G1 X106.907 Y106.749 F7800.000
G1 F1800
G1 X105.758 Y107.761 E16.06869
G1 X104.364 Y108.619 E16.21757
G1 X102.845 Y109.229 E16.36645
G1 X101.244 Y109.574 E16.51532
G1 X99.608 Y109.644 E16.66420
G1 X97.984 Y109.436 E16.81308
G1 X96.419 Y108.956 E16.96195
G1 X94.957 Y108.219 E17.11083
G1 X93.641 Y107.246 E17.25971
G1 X92.508 Y106.064 E17.40858
G1 X91.591 Y104.707 E17.55746
G1 X90.916 Y103.215 E17.70635
G1 X90.507 Y101.646 E17.85378
G1 X90.365 Y99.999 E18.00409
G1 X90.507 Y98.353 E18.15437
G1 X90.927 Y96.754 E18.30471
G1 X91.612 Y95.254 E18.45460
G1 X92.548 Y93.888 E18.60519
G1 X93.701 Y92.702 E18.75560
G1 X95.032 Y91.736 E18.90518
G1 X96.268 Y91.112 E19.03105
G1 X96.514 Y91.007 E19.05537
G1 X97.838 Y90.602 E19.18124
G1 X98.097 Y90.543 E19.20547
G1 X99.578 Y90.362 E19.34113
G1 X101.123 Y90.414 E19.48168
G1 X101.387 Y90.449 E19.50586
G1 X102.740 Y90.741 E19.63173
G1 X102.994 Y90.824 E19.65604
G1 X104.279 Y91.340 E19.78192
G1 X104.514 Y91.466 E19.80623
G1 X105.687 Y92.189 E19.93146
G1 X106.942 Y93.275 E20.08239
G1 X107.984 Y94.549 E20.23204
G1 X108.798 Y95.988 E20.38242
G1 X109.354 Y97.545 E20.53270
G1 X109.636 Y99.173 E20.68298
G1 X109.636 Y100.818 E20.83256
G1 X109.360 Y102.432 E20.98143
G1 X108.814 Y103.976 E21.13031
G1 X108.016 Y105.405 E21.27918
G1 X106.964 Y106.700 E21.43087
G1 X106.426 Y106.615 F7800.000
G1 X105.385 Y105.621 F7800.000
G1 F1800
G1 X105.872 Y105.133 E21.49579
G1 X106.700 Y104.108 E21.61973
G1 X107.343 Y102.958 E21.74377
G1 X107.457 Y102.634 E21.77606
G1 X102.664 Y107.427 E22.41388
G1 X102.051 Y107.673 E22.47609
G1 X101.353 Y107.824 E22.54327
G1 X107.848 Y101.328 E23.40764
G1 X108.005 Y100.416 E23.49476
G1 X108.005 Y100.258 E23.50967
G1 X100.291 Y107.971 E24.53615
G1 X99.445 Y108.007 E24.61580
G1 X99.352 Y107.995 E24.62460
G1 X108.004 Y99.343 E25.77593
G1 X108.004 Y99.092 E25.79962
G1 X107.906 Y98.527 E25.85356
G1 X98.542 Y107.891 E27.09973
G1 X98.138 Y107.840 E27.13806
G1 X97.786 Y107.732 E27.17262
G1 X107.767 Y97.752 E28.50073
G1 X107.526 Y97.078 E28.56806
G1 X97.086 Y107.518 E29.95732
G1 X96.877 Y107.454 E29.97789
G1 X96.451 Y107.239 E30.02283
G1 X107.269 Y96.420 E31.46244
G1 X106.939 Y95.836 E31.52559
G1 X95.843 Y106.932 E33.00216
G1 X95.700 Y106.860 E33.01719
G1 X95.298 Y106.563 E33.06428
G1 X106.594 Y95.267 E34.56745
G1 X106.185 Y94.761 E34.62864
G1 X94.772 Y106.174 E36.14740
G1 X94.641 Y106.076 E36.16282
G1 X94.305 Y105.726 E36.20843
G1 X105.757 Y94.275 E37.73235
G1 X105.267 Y93.851 E37.79335
G1 X93.858 Y105.260 E39.31158
G1 X93.728 Y105.125 E39.32914
G1 X93.466 Y104.737 E39.37324
G1 X104.769 Y93.433 E40.87740
G1 X104.200 Y93.088 E40.94005
G1 X93.097 Y104.191 E42.41754
G1 X92.990 Y104.033 E42.43550
G1 X92.788 Y103.585 E42.48169
G1 X103.618 Y92.755 E43.92289
G1 X102.962 Y92.497 E43.98927
G1 X92.503 Y102.956 E45.38099
G1 X92.447 Y102.831 E45.39388
G1 X92.295 Y102.249 E45.45042
G1 X102.278 Y92.266 E46.77894
G1 X101.521 Y92.109 E46.85176
G1 X92.113 Y101.517 E48.10366
G1 X92.041 Y100.675 E48.18319
G1 X100.692 Y92.024 E49.33443
G1 X99.904 Y91.997 E49.40860
G1 X99.790 Y92.011 E49.41942
G1 X92.045 Y99.756 E50.45001
G1 X92.117 Y98.917 E50.52921
G1 X92.170 Y98.716 E50.54875
G1 X98.748 Y92.138 E51.42406
G1 X98.564 Y92.171 E51.44162
G1 X97.463 Y92.509 E51.54998
G1 X92.549 Y97.423 E52.20397
G1 X92.996 Y96.439 E52.30571
G1 X93.760 Y95.323 E52.43300
G1 X95.181 Y93.877 E52.62370
M104 S244 ; set temperature
M140 S50 ; set bed temperature
G1 Z0.650 F7800.000
G1 X106.172 Y105.913 F7800.000
G1 F2400
G1 X105.094 Y106.862 E52.73755
G1 X103.861 Y107.621 E52.85233
G1 X102.518 Y108.161 E52.96711
G1 X101.102 Y108.466 E53.08188
G1 X99.656 Y108.528 E53.19666
G1 X98.220 Y108.344 E53.31144
G1 X96.835 Y107.920 E53.42621
G1 X95.543 Y107.268 E53.54099
G1 X94.379 Y106.407 E53.65577
G1 X93.377 Y105.362 E53.77054
G1 X92.566 Y104.162 E53.88532
G1 X91.968 Y102.840 E54.00038
G1 X91.613 Y101.486 E54.11139
G1 X91.483 Y99.999 E54.22965
G1 X91.612 Y98.519 E54.34750
G1 X91.999 Y97.074 E54.46604
G1 X92.625 Y95.732 E54.58345
G1 X93.052 Y95.100 E54.64392
G1 X93.478 Y94.514 E54.70131
G1 X94.005 Y93.964 E54.76178
G1 X94.529 Y93.464 E54.81918
G1 X95.142 Y93.010 E54.87965
G1 X95.746 Y92.611 E54.93705
G1 X96.427 Y92.268 E54.99752
G1 X97.093 Y91.983 E55.05492
G1 X97.823 Y91.760 E55.11539
G1 X98.528 Y91.599 E55.17279
G1 X99.293 Y91.501 E55.23391
G1 X99.574 Y91.485 E55.25624
G1 X100.003 Y91.469 E55.29022
G1 X100.771 Y91.502 E55.35115
G1 X101.488 Y91.599 E55.40855
G1 X102.234 Y91.760 E55.46902
G1 X102.922 Y91.983 E55.52642
G1 X103.630 Y92.268 E55.58689
G1 X104.268 Y92.611 E55.64429
G1 X104.917 Y93.011 E55.70477
G1 X105.483 Y93.462 E55.76216
G1 X106.056 Y93.966 E55.82263
G1 X106.532 Y94.511 E55.88003
G1 X107.011 Y95.105 E55.94049
G1 X107.751 Y96.386 E56.05776
G1 X108.263 Y97.792 E56.17643
G1 X108.521 Y99.257 E56.29435
G1 X108.523 Y100.724 E56.41066
G1 X108.278 Y102.150 E56.52537
G1 X107.796 Y103.515 E56.64015
G1 X107.090 Y104.779 E56.75493
G1 X106.220 Y105.856 E56.86468
G1 X106.592 Y106.391 F7800.000
G1 F2400
G1 X105.473 Y107.375 E56.98282
G1 X104.148 Y108.191 E57.10618
G1 X102.704 Y108.771 E57.22953
G1 X101.183 Y109.099 E57.35289
G1 X99.629 Y109.165 E57.47624
G1 X98.085 Y108.967 E57.59959
G1 X96.598 Y108.512 E57.72295
G1 X95.208 Y107.811 E57.84630
G1 X93.957 Y106.886 E57.96966
G1 X92.881 Y105.763 E58.09301
G1 X92.009 Y104.473 E58.21637
G1 X91.368 Y103.054 E58.33988
G1 X90.984 Y101.594 E58.45953
G1 X90.844 Y99.999 E58.58643
G1 X90.984 Y98.408 E58.71310
G1 X91.399 Y96.860 E58.84016
G1 X92.073 Y95.415 E58.96657
G1 X92.532 Y94.735 E59.03156
G1 X92.989 Y94.106 E59.09324
G1 X93.556 Y93.514 E59.15824
G1 X94.119 Y92.976 E59.21992
G1 X94.778 Y92.489 E59.28492
G1 X95.427 Y92.060 E59.34660
G1 X96.159 Y91.691 E59.41160
G1 X96.875 Y91.385 E59.47328
G1 X97.659 Y91.145 E59.53828
G1 X98.417 Y90.972 E59.59996
G1 X99.235 Y90.867 E59.66533
G1 X99.545 Y90.850 E59.68993
G1 X100.004 Y90.833 E59.72639
G1 X100.827 Y90.868 E59.79165
G1 X101.598 Y90.972 E59.85333
G1 X102.399 Y91.145 E59.91833
G1 X103.139 Y91.385 E59.98001
G1 X103.900 Y91.691 E60.04501
G1 X104.585 Y92.060 E60.10669
G1 X105.283 Y92.490 E60.17169
G1 X105.892 Y92.975 E60.23337
G1 X106.507 Y93.516 E60.29837
G1 X107.019 Y94.102 E60.36005
G1 X107.534 Y94.740 E60.42504
G1 X108.331 Y96.120 E60.55137
G1 X108.879 Y97.627 E60.67850
G1 X109.157 Y99.201 E60.80521
G1 X109.159 Y100.778 E60.93022
G1 X108.896 Y102.311 E61.05354
G1 X108.377 Y103.778 E61.17689
G1 X107.619 Y105.137 E61.30025
G1 X106.647 Y106.340 E61.42287
G1 X106.962 Y106.811 F7800.000
G1 F1200
G1 X105.808 Y107.827 E61.51602
G1 X104.401 Y108.693 E61.61604
G1 X102.869 Y109.309 E61.71607
G1 X101.255 Y109.657 E61.81609
G1 X99.605 Y109.727 E61.91612
G1 X97.967 Y109.517 E62.01614
G1 X96.388 Y109.034 E62.11616
G1 X94.913 Y108.290 E62.21619
G1 X93.585 Y107.308 E62.31621
G1 X92.443 Y106.116 E62.41624
G1 X91.518 Y104.748 E62.51626
G1 X90.838 Y103.242 E62.61633
G1 X90.430 Y101.690 E62.71356
G1 X90.282 Y99.999 E62.81633
G1 X90.430 Y98.310 E62.91905
G1 X90.869 Y96.670 E63.02186
G1 X91.585 Y95.135 E63.12451
G1 X92.072 Y94.414 E63.17722
G1 X92.558 Y93.746 E63.22723
G1 X93.160 Y93.117 E63.27994
G1 X93.757 Y92.547 E63.32995
G1 X94.456 Y92.029 E63.38266
G1 X95.145 Y91.574 E63.43267
G1 X95.923 Y91.183 E63.48538
G1 X96.682 Y90.858 E63.53539
G1 X97.514 Y90.603 E63.58810
G1 X98.319 Y90.419 E63.63811
G1 X99.184 Y90.309 E63.69092
G1 X99.519 Y90.290 E63.71124
G1 X100.006 Y90.272 E63.74077
G1 X100.876 Y90.309 E63.79355
G1 X101.695 Y90.420 E63.84356
G1 X102.545 Y90.603 E63.89627
G1 X103.331 Y90.858 E63.94628
G1 X104.138 Y91.183 E63.99899
G1 X104.865 Y91.574 E64.04900
G1 X105.606 Y92.030 E64.10171
G1 X106.252 Y92.545 E64.15172
G1 X106.905 Y93.120 E64.20443
G1 X107.448 Y93.742 E64.25444
G1 X107.995 Y94.419 E64.30715
G1 X108.842 Y95.886 E64.40977
G1 X109.423 Y97.481 E64.51261
G1 X109.717 Y99.152 E64.61533
G1 X109.719 Y100.825 E64.71670
G1 X109.440 Y102.453 E64.81672
G1 X108.890 Y104.010 E64.91674
G1 X108.085 Y105.452 E65.01677
G1 X107.018 Y106.762 E65.11909
G1 X106.481 Y106.677 F7800.000
G1 X105.853 Y94.664 F7800.000
G1 F1200
G1 X105.356 Y94.167 E65.17667
G1 X104.828 Y93.702 E65.23441
G1 X104.304 Y93.284 E65.28936
G1 X103.703 Y92.915 E65.34723
G1 X103.113 Y92.597 E65.40218
G1 X102.683 Y92.424 E65.44015
G1 X107.568 Y97.309 E66.00665
G1 X107.894 Y98.205 E66.08482
G1 X107.971 Y98.642 E66.12124
G1 X101.356 Y92.027 E66.88847
G1 X101.131 Y91.978 E66.90732
G1 X100.467 Y91.888 E66.96227
G1 X100.279 Y91.880 E66.97766
G1 X108.133 Y99.734 E67.88852
G1 X108.134 Y100.665 E67.96486
G1 X99.343 Y91.873 E68.98447
G1 X98.503 Y91.964 E69.05372
G1 X108.035 Y101.496 E70.15923
G1 X107.892 Y102.283 E70.22481
G1 X97.737 Y92.128 E71.40255
G1 X97.029 Y92.349 E71.46342
G1 X107.649 Y102.970 E72.69518
G1 X107.462 Y103.500 E72.74129
G1 X107.386 Y103.636 E72.75409
G1 X96.381 Y92.631 E74.03043
G1 X95.768 Y92.948 E74.08702
G1 X107.053 Y104.233 E75.39579
G1 X106.809 Y104.669 E75.43681
G1 X106.697 Y104.807 E75.45135
G1 X95.210 Y93.320 E76.78361
G1 X94.677 Y93.717 E76.83810
G1 X106.282 Y105.322 E78.18397
G1 X105.967 Y105.712 E78.22506
G1 X105.847 Y105.817 E78.23815
G1 X94.202 Y94.172 E79.58872
G1 X93.747 Y94.647 E79.64265
G1 X105.353 Y106.252 E80.98864
G1 X104.962 Y106.597 E81.03138
G1 X104.841 Y106.671 E81.04296
G1 X93.352 Y95.181 E82.37546
G1 X92.976 Y95.735 E82.43036
G1 X104.266 Y107.025 E83.73974
G1 X103.821 Y107.299 E83.78258
G1 X103.670 Y107.359 E83.79589
G1 X92.665 Y96.354 E85.07229
G1 X92.374 Y96.993 E85.12988
G1 X103.007 Y107.626 E86.36304
G1 X102.578 Y107.798 E86.40096
G1 X102.308 Y107.857 E86.42362
G1 X92.171 Y97.720 E87.59930
G1 X91.993 Y98.382 E87.65555
G1 X91.986 Y98.465 E87.66234
G1 X101.543 Y108.021 E88.77072
G1 X101.268 Y108.081 E88.79374
G1 X100.696 Y108.105 E88.84070
G1 X91.911 Y99.320 E89.85958
G1 X91.873 Y99.752 E89.89519
G1 X91.917 Y100.256 E89.93664
G1 X99.780 Y108.118 E90.84851
G1 X98.713 Y107.982 E90.93668
G1 X92.041 Y101.309 E91.71052
G1 X92.322 Y102.379 E91.80125
G1 X92.439 Y102.637 E91.82440
G1 X97.402 Y107.600 E92.40003
G1 X97.320 Y107.575 E92.40702
G1 X96.124 Y106.972 E92.51687
G1 X95.048 Y106.176 E92.62667
G1 X94.549 Y105.677 E92.68449
M106 S201.45
G1 Z0.950 F7800.000
G1 X106.177 Y105.919 F7800.000
G1 F2400
